full-stack-recruitment-test-master/client/src/components/topnav/skyscanner_logo.svg

<?xml version="1.0" encoding="UTF-8"?>
<svg width="119px" height="20px" viewBox="0 0 119 20" version="1.1" xmlns="http://www.w3.org/2000/svg" xmlns:xlink="http://www.w3.org/1999/xlink">
    <!-- Generator: Sketch 49.3 (51167) - http://www.bohemiancoding.com/sketch -->
    <title>skyscanner_logo</title>
    <desc>Created with Sketch.</desc>
    <defs></defs>
    <g id="Page-1" stroke="none" stroke-width="1" fill="none" fill-rule="evenodd">
        <g id="iPhone-7" transform="translate(-12.000000, -8.000000)" fill="#00B2D6">
            <g id="header">
                <g id="logo" transform="translate(12.000000, 8.000000)">
                    <path d="M39.5088068,7.68453333 C39.4552704,7.86053333 39.2546814,7.94897778 39.0779884,7.88342222 C38.5329743,7.67986667 37.9158126,7.53431111 37.3390903,7.53431111 C36.3455656,7.53431111 35.4099429,7.82342222 35.4099429,8.78497778 C35.4099429,9.30408889 35.7088734,9.57342222 36.663567,9.86253333 L37.3593101,10.0734222 C38.7512557,10.4956444 39.3479679,11.1120889 39.3479679,12.3036444 C39.3479679,14.3605333 37.8563022,15.7652 35.15329,15.7652 C34.0908343,15.7652 33.1823244,15.6034222 32.4119062,15.3438667 C32.2246437,15.2812 32.134574,15.0794222 32.1901783,14.8949778 L32.5081797,13.8280889 C32.5612565,13.6512 32.7652922,13.5676444 32.9419851,13.6358667 C33.6381877,13.9078667 34.4099846,14.0923111 35.09332,14.0923111 C36.3067345,14.0923111 37.1605592,13.6883111 37.1605592,12.7458667 C37.1605592,12.1885333 36.7628276,11.9774222 35.8681039,11.7074222 L35.1126207,11.4769778 C33.7794962,11.0540889 33.1832435,10.2845333 33.1832435,9.05408889 C33.1832435,6.95786667 34.9935999,5.82431111 37.3795298,5.82431111 C38.0966414,5.82431111 38.9173793,5.97942222 39.6007147,6.20675556 C39.7895855,6.26853333 39.8805744,6.4712 39.8229021,6.65564444 L39.5088068,7.68453333 Z M44.207301,2.1956 C44.3927253,2.1956 44.5312765,2.35915556 44.4963515,2.53515556 L43.0331772,9.84937778 C44.4124855,8.87671111 45.6169389,7.73337778 46.6803137,6.40693333 C46.8156481,6.23671111 47.025428,6.1376 47.2471558,6.1376 L48.839231,6.1376 C48.9920279,6.1376 49.0770427,6.30515556 48.9895004,6.42604444 C47.9433584,7.85315556 46.7457981,9.17048889 45.4788473,10.2336 L47.4950775,15.1427111 C47.5578047,15.2976 47.4399327,15.4651556 47.2687542,15.4651556 L45.5774185,15.4651556 C45.3637326,15.4651556 45.1714152,15.3347111 45.09674,15.1407111 L43.7093898,11.4840444 C43.2918981,11.7533778 42.8941665,11.9844889 42.5559453,12.1576 L41.9668155,15.1256 C41.9275248,15.3213778 41.7485341,15.4651556 41.5431199,15.4651556 L40.0898258,15.4651556 C39.904861,15.4651556 39.7656205,15.3016 39.8012348,15.1256 L42.3287029,2.53515556 C42.367534,2.33826667 42.5460652,2.1956 42.7544664,2.1956 L44.207301,2.1956 Z M51.6447665,6.13766667 C51.8313396,6.13766667 51.9692015,6.30122222 51.9345063,6.47833333 L50.9487937,11.3881111 C50.8690636,11.7534444 50.7893334,12.2145556 50.7893334,12.6576667 C50.7893334,13.2341111 51.1277844,13.6192222 51.9230178,13.6192222 C52.6989505,13.6192222 53.6122855,13.2918889 54.2889577,12.6767778 L55.552462,6.47722222 C55.5926717,6.28033333 55.7716624,6.13766667 55.9782254,6.13766667 L57.4315196,6.13766667 C57.6162545,6.13766667 57.7550355,6.30122222 57.7191914,6.47833333 L56.416856,12.9458889 C56.2576256,13.6952222 56.0784051,14.5416667 55.9196341,15.215 C55.1639212,18.2534444 53.7324552,19.599 50.8690636,19.599 C50.2388049,19.599 49.6103845,19.523 49.0646811,19.3812222 C48.8640921,19.3278889 48.7372591,19.133 48.7864299,18.9361111 L49.0352706,17.9538889 C49.0793864,17.7741111 49.2648106,17.6598889 49.4506944,17.7027778 C49.8631313,17.7978889 50.3350785,17.8681111 50.769803,17.8681111 C52.4611387,17.8681111 53.4537444,17.1758889 53.8117257,15.2918889 L53.9516556,14.5796667 C53.2161624,15.195 52.1217687,15.5992222 51.088264,15.5992222 C49.4176076,15.5992222 48.5228839,14.7916667 48.5228839,13.5032222 C48.5228839,12.7338889 48.6821144,11.8874444 48.8611051,11.0038889 L49.7668577,6.47833333 C49.8070674,6.28033333 49.9855986,6.13766667 50.1923914,6.13766667 L51.6447665,6.13766667 Z M64.7637505,7.69157778 C64.7097546,7.86757778 64.5100846,7.95602222 64.3331618,7.89046667 C63.7883776,7.68691111 63.1702967,7.54135556 62.5938042,7.54135556 C61.6005093,7.54135556 60.6664949,7.83046667 60.6664949,8.79202222 C60.6664949,9.31113333 60.9633576,9.58046667 61.9180512,9.86935556 L62.6144835,10.0804667 C64.0057398,10.5026889 64.6026818,11.1189111 64.6026818,12.3106889 C64.6026818,14.3675778 63.1110161,15.7722444 60.4077741,15.7722444 C59.3469268,15.7722444 58.4368085,15.6104667 57.6675392,15.3509111 C57.4795874,15.2882444 57.3897474,15.0864667 57.4442029,14.9020222 L57.7633532,13.8351333 C57.8159705,13.6582444 58.0204656,13.5744667 58.1973884,13.6429111 C58.8926719,13.9149111 59.6644687,14.0993556 60.3473446,14.0993556 C61.5602996,14.0993556 62.4152731,13.6953556 62.4152731,12.7529111 C62.4152731,12.1955778 62.0184606,11.9844667 61.1237369,11.7144667 L60.3664155,11.4840222 C59.0351292,11.0609111 58.439336,10.2915778 58.439336,9.06113333 C58.439336,6.96491111 60.2485436,5.83135556 62.634933,5.83135556 C63.352734,5.83135556 64.1718634,5.98646667 64.856118,6.2138 C65.0431506,6.27557778 65.1343692,6.47824444 65.0773863,6.66268889 L64.7637505,7.69157778 Z M73.2495178,7.90175556 C73.2003471,8.07197778 73.0029748,8.15175556 72.8357024,8.07775556 C72.3127462,7.84664444 71.7197103,7.71442222 71.0448763,7.71442222 C68.937887,7.71442222 67.6638133,9.46531111 67.6638133,11.6953111 C67.6842628,13.0228667 68.1817145,13.9073111 69.7326608,13.9262 C70.4199024,13.9426444 71.1365545,13.8084222 71.7845054,13.5926444 C71.9428168,13.5404222 72.116293,13.6477556 72.0969924,13.8084222 L71.9605091,14.9286444 C71.9350046,15.1455333 71.7833565,15.3299778 71.5710492,15.4013111 C70.8504911,15.6437556 70.0646782,15.7722 69.1759286,15.7722 C66.5907882,15.7722 65.3778333,14.3495333 65.3778333,12.0024222 C65.3778333,8.67686667 67.326741,5.83153333 71.0637174,5.83153333 C71.9703892,5.83153333 72.7355227,5.99508889 73.3577394,6.25375556 C73.5514354,6.33442222 73.6488578,6.54375556 73.5911855,6.73975556 L73.2495178,7.90175556 Z M78.6401247,10.9649111 L79.0364777,10.9649111 L78.5996852,13.0609111 C78.0636322,13.5991333 77.2084289,14.0033556 76.3938949,14.0033556 C75.5386916,14.0033556 75.1600309,13.6191333 75.1600309,13.0029111 C75.1600309,11.5991333 76.6321662,10.9649111 78.6401247,10.9649111 Z M74.8337578,6.83002222 C74.838583,6.62091111 74.9769044,6.43446667 75.1816293,6.36691111 C76.1335657,6.0598 77.336181,5.83135556 78.3814039,5.83135556 C80.3696022,5.83135556 81.661598,6.4078 81.661598,8.08068889 C81.661598,8.42668889 81.6023173,8.85002222 81.5035163,9.31113333 L80.7285027,13.2529111 C80.6083331,13.8444667 80.6680732,14.1753556 80.9320788,14.3049111 C81.0942963,14.3838 81.2298604,14.5349111 81.1935568,14.7071333 L81.076604,15.2606889 C81.0313393,15.4744667 80.8642967,15.6504667 80.6439474,15.6962444 C80.418773,15.7418 80.1678643,15.7722444 79.9321205,15.7722444 C79.0364777,15.7722444 78.5996852,15.3680222 78.5404046,14.6566889 L78.4808942,14.6566889 C77.8249014,15.3491333 76.8309171,15.7722444 75.6567933,15.7722444 C73.9672958,15.7722444 72.8738212,14.9458 72.8738212,13.2920222 C72.8738212,11.0609111 74.7032485,9.46513333 78.7991255,9.46513333 L79.3365571,9.46513333 C79.3951484,9.17624444 79.434439,8.88802222 79.434439,8.67691111 C79.434439,7.90757778 79.0364777,7.56135556 77.7844619,7.56135556 C76.9883095,7.56135556 76.0331563,7.74491111 75.1315395,8.04157778 C74.9713899,8.0958 74.8059556,7.97602222 74.8100915,7.81246667 L74.8337578,6.83002222 Z M85.4001598,6.13766667 C85.5924772,6.13766667 85.7425169,6.29744444 85.7236757,6.483 L85.6588806,7.13811111 L85.6779515,7.13811111 C86.6519458,6.34988889 87.90557,5.83144444 89.1180654,5.83144444 C90.6294913,5.83144444 91.6225565,6.677 91.6225565,8.02344444 C91.6225565,8.67677778 91.5239852,9.21522222 91.4051942,9.83033333 L90.3590522,15.1254444 C90.3186127,15.3214444 90.1407709,15.4652222 89.9342078,15.4652222 L88.4806839,15.4652222 C88.2961787,15.4652222 88.1553298,15.3014444 88.1927823,15.1254444 L89.1575858,10.2916667 C89.2577654,9.81144444 89.3374956,9.27211111 89.3374956,8.94611111 C89.3374956,8.23477778 88.9390747,7.86944444 88.1038614,7.86944444 C87.189837,7.86944444 86.1554132,8.32988889 85.41992,9.00322222 L84.2143177,15.1254444 C84.176176,15.3214444 83.9971853,15.4652222 83.7910817,15.4652222 L82.3382471,15.4652222 C82.1512145,15.4652222 82.0117442,15.3014444 82.0480478,15.1254444 L83.761901,6.47833333 C83.8011916,6.28033333 83.9792632,6.13766667 84.1858263,6.13766667 L85.4001598,6.13766667 Z M95.2430167,6.13766667 C95.4351043,6.13766667 95.583076,6.29744444 95.5665326,6.483 L95.5005887,7.13811111 L95.5203489,7.13811111 C96.4948027,6.34988889 97.7468185,5.83144444 98.9593139,5.83144444 C100.47097,5.83144444 101.465184,6.677 101.465184,8.02344444 C101.465184,8.67677778 101.365004,9.21522222 101.246902,9.83033333 L100.20053,15.1254444 C100.16124,15.3214444 99.9824789,15.4652222 99.7759158,15.4652222 L98.3223919,15.4652222 C98.1367379,15.4652222 97.9986462,15.3014444 98.0326521,15.1254444 L99.0002129,10.2916667 C99.0994734,9.81144444 99.1792036,9.27211111 99.1792036,8.94611111 C99.1792036,8.23477778 98.7807827,7.86944444 97.9455694,7.86944444 C97.031545,7.86944444 95.9980403,8.32988889 95.261628,9.00322222 L94.0571746,15.1254444 C94.018803,15.3214444 93.8388933,15.4652222 93.6323302,15.4652222 L92.179036,15.4652222 C91.9931522,15.4652222 91.853682,15.3014444 91.8883772,15.1254444 L93.603609,6.47833333 C93.6419805,6.28033333 93.821201,6.13766667 94.0286831,6.13766667 L95.2430167,6.13766667 Z M108.722027,10.1765111 L104.78584,10.1765111 C105.103612,8.61873333 105.999025,7.58051111 107.470241,7.58051111 C108.483985,7.58051111 108.881028,8.19562222 108.881028,9.06095556 C108.881028,9.46517778 108.803366,9.8874 108.722027,10.1765111 Z M6.23250654,9.69933333 C6.23181724,9.69488889 6.23181724,9.69355556 6.23066839,9.68977778 C6.23181724,9.69533333 6.23250655,9.69933333 6.23250655,9.69933333 C5.98251697,7.51466667 7.97645953,5.39577778 10.1654767,5.39577778 C10.9384224,5.39577778 11.6596698,5.61088889 12.2692492,5.98044444 C12.6784693,2.61355556 15.6383642,-3.55271368e-15 19.2308154,-3.55271368e-15 C21.1822505,-3.55271368e-15 22.945734,0.772888889 24.2165909,2.01755556 C16.0473545,2.71133333 9.63999307,9.34377778 9.63999307,17.4246667 C9.63930376,17.4382222 9.64022284,17.4506667 9.64022284,17.4637778 L4.13815458,17.4637778 C3.96835467,17.4637778 3.8029204,17.4484444 3.64116244,17.4204444 C1.58173549,17.1324444 0,15.4184444 0,13.3464444 C0,11.0726667 1.90548117,9.22933333 4.25671581,9.22933333 C4.96969158,9.22933333 5.64176832,9.39955556 6.23250655,9.69933333 Z M104.547799,11.6951778 C104.507359,11.9845111 104.527119,12.3107333 104.567559,12.5418444 C104.746549,13.4840667 105.501573,13.9454 106.773809,13.9454 C107.662099,13.9454 108.594045,13.8131778 109.413175,13.5611778 C109.570797,13.5127333 109.733704,13.6296222 109.713024,13.7885111 L109.580217,14.8527333 C109.554713,15.0609556 109.418,15.2454 109.212586,15.3149556 C108.311888,15.6191778 107.293088,15.7722889 106.336327,15.7722889 C103.593105,15.7722889 102.26067,14.6378444 102.26067,12.0614 C102.26067,9.83028889 103.015923,7.77362222 104.647289,6.67695556 C105.462282,6.11873333 106.476257,5.8314 107.748492,5.8314 C110.055381,5.8314 111.069126,7.09917778 111.069126,8.98495556 C111.069126,9.63451111 110.989396,10.4991778 110.803512,11.3738444 C110.762843,11.5669556 110.577189,11.6951778 110.373613,11.6951778 L104.547799,11.6951778 Z M114.629616,6.13766667 C114.821933,6.13766667 114.97473,6.29655556 114.960714,6.483 L114.905799,7.23433333 L114.94509,7.23433333 C115.681502,6.369 116.755906,5.92655556 117.769191,5.92655556 C117.881319,5.92655556 117.976673,5.92944444 118.058241,5.93522222 C118.248031,5.94655556 118.355334,6.13966667 118.298351,6.31455556 L117.896024,7.55855556 C117.832148,7.75722222 117.632478,7.88366667 117.418103,7.89233333 C116.413319,7.93411111 115.442771,8.21166667 114.787008,8.65788889 L113.502825,15.1254444 C113.462845,15.3214444 113.284773,15.4652222 113.077751,15.4652222 L111.624686,15.4652222 C111.439722,15.4652222 111.299102,15.3014444 111.334946,15.1254444 L113.049489,6.47833333 C113.089699,6.28033333 113.266621,6.13766667 113.473184,6.13766667 L114.629616,6.13766667 Z M6.22584322,9.64644444 C6.22423483,9.63088889 6.22285621,9.62488889 6.22584322,9.64644444 Z M6.22584322,9.64644444 C6.22699207,9.66022222 6.22951954,9.67844444 6.23066839,9.68977778 C6.22883023,9.66955556 6.22699207,9.65555556 6.22584322,9.64644444 Z M28.8744848,14.3217778 C28.9792598,14.4233333 29.0773716,14.5288889 29.1695093,14.6371111 C28.76948,15.3373333 28.2233171,15.9426667 27.5643372,16.4108889 C27.4692125,16.2417778 27.3508811,16.0815556 27.2026795,15.938 C26.7753077,15.5237778 26.2105334,15.3295556 25.648976,15.334 C25.0874185,15.3295556 24.5240229,15.5237778 24.0955022,15.938 C23.6621563,16.3575556 23.5245242,16.7291111 23.3756333,17.4637778 L21.100912,17.4637778 C21.0894235,16.3271111 21.5278244,15.1886667 22.4239267,14.3217778 C23.2848742,13.4888889 24.4033937,13.0642222 25.5297254,13.0406667 L25.5297254,13.0415556 C25.5694756,13.04 25.6094556,13.0406667 25.648976,13.0406667 C25.6884964,13.0406667 25.7280168,13.04 25.7682265,13.0415556 L25.7682265,13.0406667 C26.8952475,13.0642222 28.0135373,13.4888889 28.8744848,14.3217778 Z M29.8847827,12.3762222 C28.6863033,11.4393333 27.2302519,10.9635556 25.7682265,10.9426667 L25.7682265,10.9413333 C25.7280168,10.9406667 25.6884964,10.9422222 25.648976,10.9422222 C25.6094556,10.9422222 25.5694756,10.9406667 25.5297254,10.9413333 L25.5297254,10.9426667 C23.8459721,10.9668889 22.1688822,11.5933333 20.886307,12.8337778 C19.5674282,14.1088889 18.9201666,15.7875556 18.9298169,17.4637778 L16.5606602,17.4637778 C16.5494015,15.2042222 17.4328665,12.9408889 19.2147315,11.2177778 C20.991082,9.49955556 23.3197992,8.64644444 25.648976,8.65066667 C26.9071955,8.64822222 28.164496,8.89844444 29.3349435,9.39733333 C29.7030348,10.1337778 29.9105169,10.9591111 29.9105169,11.8322222 C29.9105169,12.0157778 29.9017857,12.1971111 29.8847827,12.3762222 Z M15.9003018,8.00977778 C18.5909064,5.40711111 22.1206305,4.11266667 25.648976,4.116 C25.657937,4.116 25.6675873,4.11688889 25.6767781,4.11688889 C25.9906437,4.82733333 26.1825015,5.6 26.2277662,6.41088889 C26.0405038,6.40177778 25.8527818,6.39755556 25.6643705,6.39755556 C25.6593156,6.39755556 25.6542607,6.398 25.648976,6.39822222 C25.6436913,6.398 25.6386363,6.39755556 25.6340409,6.39755556 C22.5882121,6.39755556 19.7252801,7.54555556 17.572107,9.62711111 C15.418934,11.7102222 14.2319431,14.4791111 14.2319431,17.4246667 C14.2319431,17.4375556 14.2328621,17.4506667 14.2333217,17.4637778 L11.8722069,17.4637778 C11.8627864,14.0435556 13.2011956,10.6193333 15.9003018,8.00977778 Z" id="skyscanner_logo"></path>
                </g>
            </g>
        </g>
    </g>
</svg>

<svg width="119" height="20" xmlns="http://www.w3.org/2000/svg"><title>Skyscanner</title><path d="M39.509 7.685c-.054.176-.254.264-.431.198-.545-.203-1.162-.349-1.739-.349-.993 0-1.93.29-1.93 1.251 0 .52.3.788 1.255 1.078l.695.21c1.392.423 1.989 1.04 1.989 2.23 0 2.058-1.492 3.462-4.195 3.462-1.062 0-1.97-.162-2.741-.421a.358.358 0 0 1-.222-.449l.318-1.067c.053-.177.257-.26.434-.192.696.272 1.468.456 2.151.456 1.214 0 2.068-.404 2.068-1.346 0-.557-.398-.769-1.293-1.039l-.755-.23c-1.334-.423-1.93-1.192-1.93-2.423 0-2.096 1.81-3.23 4.197-3.23.717 0 1.537.155 2.22.383.19.062.28.264.223.449l-.314 1.029zm4.698-5.49c.186 0 .324.164.29.34L43.032 9.85a17.772 17.772 0 0 0 3.647-3.442.724.724 0 0 1 .567-.27h1.592c.153 0 .238.168.15.289-1.046 1.427-2.243 2.744-3.51 3.808l2.016 4.909a.237.237 0 0 1-.226.322h-1.692a.515.515 0 0 1-.48-.324l-1.388-3.657c-.417.27-.815.5-1.153.674l-.59 2.968a.431.431 0 0 1-.423.34H40.09a.288.288 0 0 1-.289-.34l2.528-12.59a.43.43 0 0 1 .425-.34h1.453zm7.438 3.943c.186 0 .324.163.29.34l-.986 4.91c-.08.365-.16.827-.16 1.27 0 .576.339.961 1.134.961.776 0 1.69-.327 2.366-.942l1.263-6.2c.04-.197.22-.34.426-.34h1.454c.184 0 .323.164.287.341l-1.302 6.468c-.16.75-.339 1.596-.497 2.269-.756 3.038-2.188 4.384-5.05 4.384a7.32 7.32 0 0 1-1.805-.218.373.373 0 0 1-.279-.445l.25-.982a.347.347 0 0 1 .415-.251c.412.095.884.165 1.319.165 1.691 0 2.684-.692 3.042-2.576l.14-.712c-.736.615-1.83 1.02-2.864 1.02-1.67 0-2.565-.808-2.565-2.097 0-.77.16-1.616.338-2.5l.906-4.525a.431.431 0 0 1 .425-.34h1.453zm13.119 1.554c-.054.176-.254.264-.43.198-.546-.203-1.164-.349-1.74-.349-.993 0-1.928.29-1.928 1.251 0 .52.297.788 1.252 1.077l.696.211c1.392.423 1.989 1.039 1.989 2.23 0 2.058-1.492 3.462-4.195 3.462-1.061 0-1.971-.162-2.74-.421a.36.36 0 0 1-.224-.449l.32-1.067c.052-.177.256-.26.433-.192.696.272 1.467.456 2.15.456 1.213 0 2.068-.404 2.068-1.346 0-.557-.397-.769-1.291-1.039l-.758-.23c-1.33-.423-1.927-1.192-1.927-2.423 0-2.096 1.81-3.23 4.196-3.23.718 0 1.537.155 2.221.383a.357.357 0 0 1 .221.449l-.313 1.029zm8.486.21c-.05.17-.247.25-.414.176a4.377 4.377 0 0 0-1.791-.364c-2.107 0-3.381 1.751-3.381 3.981.02 1.328.518 2.212 2.069 2.231.687.017 1.404-.118 2.052-.333.158-.053.331.055.312.215l-.136 1.12a.573.573 0 0 1-.39.473c-.72.243-1.506.371-2.395.371-2.585 0-3.798-1.422-3.798-3.77 0-3.325 1.949-6.17 5.686-6.17.906 0 1.672.163 2.294.422.193.08.29.29.233.486l-.341 1.162zm5.39 3.063h.396L78.6 13.06c-.536.538-1.392.942-2.206.942-.855 0-1.234-.384-1.234-1 0-1.404 1.472-2.038 3.48-2.038zM74.834 6.83a.503.503 0 0 1 .348-.463c.952-.307 2.154-.536 3.2-.536 1.988 0 3.28.577 3.28 2.25 0 .346-.06.769-.158 1.23l-.775 3.942c-.12.591-.06.922.203 1.052.162.079.298.23.262.402l-.117.554a.563.563 0 0 1-.433.435 3.689 3.689 0 0 1-.712.076c-.896 0-1.332-.404-1.392-1.115h-.06c-.655.692-1.65 1.115-2.823 1.115-1.69 0-2.783-.826-2.783-2.48 0-2.231 1.83-3.827 5.925-3.827h.538c.058-.289.097-.577.097-.788 0-.77-.398-1.116-1.65-1.116-.796 0-1.75.184-2.652.48a.242.242 0 0 1-.322-.229l.024-.982zM85.4 6.138c.192 0 .343.16.324.345l-.065.655h.019c.974-.788 2.228-1.307 3.44-1.307 1.511 0 2.505.846 2.505 2.192 0 .654-.099 1.192-.218 1.807l-1.046 5.295a.432.432 0 0 1-.425.34h-1.453c-.185 0-.326-.164-.288-.34l.965-4.833c.1-.48.18-1.02.18-1.346 0-.711-.399-1.077-1.234-1.077-.914 0-1.949.46-2.684 1.134l-1.206 6.122a.429.429 0 0 1-.423.34h-1.453a.287.287 0 0 1-.29-.34l1.714-8.647a.429.429 0 0 1 .424-.34H85.4zm9.843 0c.192 0 .34.16.324.345l-.066.655h.02c.974-.788 2.226-1.307 3.438-1.307 1.512 0 2.506.846 2.506 2.192 0 .654-.1 1.192-.218 1.807l-1.046 5.295a.431.431 0 0 1-.425.34h-1.454a.289.289 0 0 1-.29-.34L99 10.292c.1-.48.18-1.02.18-1.346 0-.711-.4-1.077-1.234-1.077-.914 0-1.948.46-2.684 1.134l-1.205 6.122a.43.43 0 0 1-.425.34H92.18a.29.29 0 0 1-.29-.34l1.715-8.647a.429.429 0 0 1 .425-.34h1.214zm13.479 4.039h-3.936c.318-1.558 1.213-2.596 2.684-2.596 1.014 0 1.411.615 1.411 1.48 0 .404-.078.826-.159 1.116zM6.232 9.699l-.001-.01c0 .006.002.01.002.01-.25-2.184 1.743-4.303 3.932-4.303.773 0 1.495.215 2.104.584C12.68 2.614 15.64 0 19.231 0c1.951 0 3.715.773 4.986 2.018C16.047 2.71 9.64 9.344 9.64 17.425v.039H4.138c-.17 0-.335-.016-.497-.044C1.581 17.132 0 15.418 0 13.346 0 11.073 1.905 9.23 4.257 9.23c.713 0 1.385.17 1.976.47zm98.316 1.996c-.04.29-.02.616.02.847.179.942.934 1.403 2.206 1.403.888 0 1.82-.132 2.64-.384.157-.048.32.069.299.228l-.133 1.064a.554.554 0 0 1-.367.462 9.2 9.2 0 0 1-2.877.457c-2.743 0-4.075-1.134-4.075-3.71 0-2.232.755-4.288 2.386-5.385.815-.558 1.83-.846 3.101-.846 2.307 0 3.321 1.268 3.321 3.154 0 .65-.08 1.514-.265 2.389-.041.193-.227.321-.43.321h-5.826zm10.082-5.557c.192 0 .345.159.33.345l-.054.751h.04a3.748 3.748 0 0 1 3.112-1.299c.19.012.297.205.24.38l-.402 1.244c-.064.198-.264.325-.478.333-1.005.042-1.975.32-2.631.766l-1.284 6.467a.432.432 0 0 1-.425.34h-1.453a.288.288 0 0 1-.29-.34l1.714-8.647a.43.43 0 0 1 .424-.34h1.157zM6.226 9.646c-.002-.015-.003-.021 0 0zm0 0l.005.044-.005-.044zm22.648 4.676c.105.101.203.207.296.315-.4.7-.947 1.306-1.606 1.774a2.058 2.058 0 0 0-.361-.473 2.193 2.193 0 0 0-1.554-.604 2.194 2.194 0 0 0-1.553.604c-.434.42-.571.791-.72 1.526H21.1a4.29 4.29 0 0 1 1.323-3.142 4.588 4.588 0 0 1 3.106-1.281h.239a4.588 4.588 0 0 1 3.105 1.28zm1.01-1.946a6.833 6.833 0 0 0-4.116-1.433v-.002l-.119.001h-.12c-1.683.025-3.36.651-4.643 1.892a6.36 6.36 0 0 0-1.956 4.63h-2.37a8.598 8.598 0 0 1 2.655-6.246C20.99 9.5 23.32 8.646 25.649 8.65a9.362 9.362 0 0 1 3.686.746 5.427 5.427 0 0 1 .55 2.98zM15.9 8.01c2.69-2.603 6.22-3.897 9.749-3.894h.028c.314.711.506 1.484.55 2.295a11.59 11.59 0 0 0-.563-.013h-.03c-3.046 0-5.909 1.148-8.062 3.23-2.153 2.082-3.34 4.851-3.34 7.797l.001.039h-2.36c-.01-3.42 1.328-6.845 4.027-9.454z" fill="#00B2D6" fill-rule="evenodd"/></svg>
